icons/advertisement-fill.svg

<svg xmlns="http://www.w3.org/2000/svg" width="24" height="24" fill="none"><g clip-path="url(#a)"><g><path fill="#121212" d="M21 3C21.2652 3 21.5196 3.10536 21.7071 3.29289C21.8946 3.48043 22 3.73478 22 4V20C22 20.2652 21.8946 20.5196 21.7071 20.7071C21.5196 20.8946 21.2652 21 21 21H3C2.73478 21 2.48043 20.8946 2.29289 20.7071C2.10536 20.5196 2 20.2652 2 20V4C2 3.73478 2.10536 3.48043 2.29289 3.29289C2.48043 3.10536 2.73478 3 3 3H21ZM9.399 8H7.399L4.199 16H6.353L6.753 15H10.043L10.443 16H12.598L9.399 8ZM19 8H17V10H16C15.2191 9.99925 14.4687 10.303 13.9082 10.8468C13.3477 11.3905 13.0213 12.1314 12.9984 12.912C12.9755 13.6925 13.2578 14.4513 13.7855 15.027C14.3131 15.6027 15.0444 15.9499 15.824 15.995L16 16H19V8ZM17 12V14H16L15.883 13.993C15.64 13.9641 15.4159 13.847 15.2534 13.664C15.0909 13.481 15.0011 13.2448 15.0011 13C15.0011 12.7552 15.0909 12.519 15.2534 12.336C15.4159 12.153 15.64 12.0359 15.883 12.007L16 12H17ZM8.399 10.885L9.244 13H7.552L8.399 10.885Z"/></g></g><defs><clipPath id="a"><rect width="24" height="24" fill="white"/></clipPath></defs></svg>

<svg width="24" height="24" fill="none" xmlns="http://www.w3.org/2000/svg"><g clip-path="url(#a)"><path d="M21 3a1 1 0 0 1 1 1v16a1 1 0 0 1-1 1H3a1 1 0 0 1-1-1V4a1 1 0 0 1 1-1h18ZM9.399 8h-2l-3.2 8h2.154l.4-1h3.29l.4 1h2.155L9.399 8ZM19 8h-2v2h-1a3 3 0 0 0-.176 5.995L16 16h3V8Zm-2 4v2h-1l-.117-.007a1 1 0 0 1 0-1.986L16 12h1Zm-8.601-1.115L9.244 13H7.552l.847-2.115Z" /></g><defs><clipPath id="a"><path fill="#fff" d="M0 0h24v24H0z"/></clipPath></defs></svg>
